images/default/download--white.svg

<svg height="19" width="18" xmlns="http://www.w3.org/2000/svg"><g fill="none" fill-rule="evenodd"><path d="m-1-1h20v20h-20z"/><g stroke="#fff" stroke-width="1.5"><path d="m12.243 14-3.243 3.243-3.243-3.243"/><path d="m9 16v-8" stroke-linecap="square"/><path d="m11.73 10h2.07c1.767 0 3.2-1.343 3.2-3s-1.433-3-3.2-3c0-1.243-1.075-2.25-2.4-2.25-.598 0-1.145.205-1.565.544-.66-.788-1.685-1.294-2.835-1.294-1.988 0-3.6 1.511-3.6 3.375 0 .394.072.773.205 1.125h-.205c-1.325 0-2.4 1.007-2.4 2.25s1.075 2.25 2.4 2.25h2.86"/></g></g></svg>

<svg height="19" width="18" xmlns="http://www.w3.org/2000/svg"><g fill="none" fill-rule="evenodd"><path d="M-1-1h20v20H-1z"/><g stroke="#fff" stroke-width="1.5"><path d="M12.243 14L9 17.243 5.757 14"/><path d="M9 16V8" stroke-linecap="square"/><path d="M11.73 10h2.07c1.767 0 3.2-1.343 3.2-3s-1.433-3-3.2-3c0-1.243-1.075-2.25-2.4-2.25-.598 0-1.145.205-1.565.544A3.687 3.687 0 007 1C5.012 1 3.4 2.511 3.4 4.375c0 .394.072.773.205 1.125H3.4C2.075 5.5 1 6.507 1 7.75S2.075 10 3.4 10h2.86"/></g></g></svg>
